X:1
T:Piece n.2
T:Wilhelm POPP (1828-1903) 
T:from 12 easy pieces for flute and piano, op. 371
%%score 1 { 2 | 3 }
L:1/8
Q:1/4=80
M:6/8
K:G
V:1 treble nm="Flute" snm="Fl."
V:2 treble nm="Piano" snm="Pno."
V:3 bass 
V:1
"^Andantino" z6 | z6 |!mp!"_dolce" b3 (ab).a | (g3 d2) z |!<(! (.d.e.f .g.a.b)!<)! | %5
!>(! (d'c').b a2!>)! ^a |!<(! b3 (=ab).a | (g3 e2)!<)! z | .f(ba) (gB).^c | d3 z z2 | %10
!p! c'3 (bc').b | (a3 d2) d |!<(! c'3 (_bc').b!<)! | a(.d.e .f.g.a) |!mp!"_dolce" =b3 (ab).a | %15
 (g3 d2) z | (.d.e.f .g.a.b) | (d'c').b a2 ^a |!<(! b3 (bc').d'!<)! |!mf! (c'3 g2) a | %20
 (be').d' (c'e).f | g3 z z2 |!p! _b2 b (ba).g | (a3 d'2) c' | _bbb (ba).g | (a3 d2) d | %26
"_cresc." g3 a3 | _b3- bab | c'3- c'_bc' |!f! d'3- d'd'd' |!>(! (c'a).c' (_bg).b!>)! | %31
 (a3 d)!mp!d'd' |!>(! (c'a).c' (_bg).b!>)! | a(.d.e .f.g.a) |!mp!"_dolce" =b3 (ab).a | (g3 d2) z | %36
!<(! (.d.e.f .g.a.b)!<)! |!>(! (d'c').b a2!>)! ^a |!<(! bbb (bc').d'!<)! |!mf! (c'3 g2) a | %40
 (be').d' (c'e).f | g2 z!<(! (gf).g!<)! |!>(! (_e'3 f2)!>)! f |!<(! g2 g (gf).g!<)! | %44
!>(! (_e'f).f (fg).a!>)! | g3- gbd | g3- gd'b | g!p!(.G.B .d.B.d | .g.d'.b .g.d.B) |!>(! G6- | %50
 G2!>)! z4 |] %51
V:2
 B,DG CDA | B,DG CDA | B,DG CDA | B,DG B,DG | B,DG B,DG | CDA CDC | B,DG B,FA | B,EG B,EG | %8
 [DF]2 z [^CE]2 z | D^CD FAd | [Ac][Ac][Ac] [GB][GB][GB] | [FA][FA][FA] [FA][FA][FA] | %12
 [Ac][Ac][Ac] [G_B][GB][GB] | [FA]2 z4 | B,DG CDA | B,DG B,DG | B,DG B,DG | CDA CDC | B,DG B,DG | %19
 G,CG G,CG | [B,DG]2 z [CDA]2 z | [B,B]DB, z z2 | [DG][DG][DG] [DG]2 z | [DA][DA][DA] [DA]2 z | %24
 [DG][DG][DG] [DG]2 z | [DF][DF][DF] [DF]2 z | GDG ADA | [DG_B][DGB][DGB] [DGB]2 z | %28
 [=FAc][FAc][FAc] [FAc]2 z | [=F_Bd][FBd][FBd] [FBd]2 z | [DAc]2 z [DG_B]2 z | [DFA]3- [DFA]2 z | %32
 [DAc]2 z [DG_B]2 z | [DFA]3 z2 z | B,DG CDA | B,DG B,DG | B,DG B,DG | CDA CDC | B,DG B,DG | %39
 G,CG G,CG | [B,DG]2 z [CDB]2 z | [B,DG][B,DG][B,DG] [B,DG]2 z | C_EA CEA | %43
 [B,DG][B,DG][B,DG] [B,DG]2 z | C_EA CEA | [B,DG][B,DG][B,DG] [B,DG]2 z | %46
 [B,DG][B,DG][B,DG] [B,DG]2 z | [B,DG]6 | [B,DG]3 [B,DG]3 |!>(! [B,G]6- | [B,G]2!>)! z4 |] %51
V:3
 z6 | z6 | G,3 [D,F,]3 | [G,,G,]6 | [G,,D,]3 [G,,D,]3 | [F,,D,]6 | [G,,D,]3 [B,,^D,]3 | %7
 [E,G,]3 [G,,G,]3 | [A,,A,]2 z [A,,G,]2 z | [D,F,]2 z4 | [F,D][F,D][F,D] [G,D][G,D][G,D] | %11
 [D,D][D,D][D,D] [D,D][D,D][D,D] | [F,D][F,D][F,D] [G,D][G,D][G,D] | [D,D]2 z4 | [G,,G,]3 [D,F,]3 | %15
 [G,,G,]6 | [G,,D,]3 [G,,D,]3 | [F,,D,]6 | [G,,D,]3 [=F,,D,]3 | [E,,C,]3 [_E,,C,]3 | %20
 [D,,D,]2 z [D,,D,]2 z | [G,,D,]2 z G,G,G, | [G,_B,][G,B,][G,B,] [G,B,]2 z | %23
 [F,A,][F,A,][F,A,] [F,A,]2 z | [G,_B,][G,B,][G,B,] [G,B,]2 z | [D,A,][D,A,][D,A,] [D,A,]2 z | %26
 [_B,,G,]3 [F,,D,F,]3 | [G,,D,][G,,D,][G,,D,] [G,,D,]2 z | [=F,,=F,][F,,F,][F,,F,] [F,,F,]2 z | %29
 [_B,,=F,][B,,F,][B,,F,] [B,,F,]2 z | [^F,,^F,]2 z [G,,G,]2 z | D,,D,D, D,2 z | %32
 [^F,,^F,]2 z [G,,G,]2 z | [D,,D,]2 z4 | G,3 [D,F,]3 | [G,,G,]6 | [G,,D,]3 [G,,D,]3 | [F,,D,]6 | %38
 [G,,D,]3 [=F,,D,]3 | [E,,C,]3 [_E,,C,]3 | [D,,D,]2 z [D,,D,]2 z | %41
 [G,,D,][G,,D,][G,,D,] [G,,D,]2 z | [G,,_E,]2 z [G,,E,]2 z | [G,,D,][G,,D,][G,,D,] [G,,D,]2 z | %44
 [G,,_E,]2 z [G,,E,]2 z | [G,,D,][G,,D,][G,,D,] [G,,D,]2 z | [G,,D,][G,,D,][G,,D,] [G,,D,]2 z | %47
 [G,,D,]6 | [G,,D,]3 [G,,D,]3 | (G,,E,D, ^C,D,B,, | G,,2) z4 |] %51

